logos/storyblok-icon.svg

<?xml version="1.0" encoding="UTF-8"?>
<svg width="256px" height="302px" viewBox="0 0 256 302" version="1.1" xmlns="http://www.w3.org/2000/svg" preserveAspectRatio="xMidYMid">
    <title>storyblok</title>
    <g>
        <path d="M244.494792,-1.42108547e-14 L244.220859,0.292195748 C251.370263,0.292195748 255.745059,5.83279364 255.989211,12.6115016 L256,13.2127265 L256,243.764303 C256,250.883254 251.844327,255.23748 245.148209,255.494836 L244.513055,255.50692 L89.5579969,255.50692 L47.1348267,301.326865 L47.1348267,255.214724 L12.9661863,255.214724 C6.09770631,255.214724 0.347472182,251.068612 0.0151647077,244.371028 L0,243.755172 L0,12.9205307 C0,6.06712005 5.56691661,0.32709268 12.6478332,0.0134903958 L13.2583821,-1.42108547e-14 L244.494792,-1.42108547e-14 Z M165.565416,46.9887288 L47.1348267,46.9887288 L47.1348267,211.458411 L151.430447,211.458411 C159.38365,211.458411 167.044657,209.988301 174.112142,208.225995 C180.716983,206.862415 186.542311,203.947762 191.84054,200.706987 L192.967898,200.00799 C197.905223,197.059575 202.048509,192.960418 205.048176,188.067409 L205.632758,187.078328 L205.331431,187.078328 C208.271651,181.800542 209.750892,175.627907 209.750892,168.286489 C209.750892,156.836068 207.093737,147.723213 201.788558,140.673991 C196.200314,133.926095 188.831502,129.22357 179.408189,126.584677 C186.889214,123.396413 193.102686,117.818738 197.076901,110.723926 C200.91197,103.674704 202.975603,96.3332858 202.975603,88.6996719 C203.105015,78.3184999 199.556619,68.2264353 192.958767,60.2105864 C189.717221,56.3846483 185.589956,53.161364 181.179626,50.8055357 C176.773558,48.3425691 172.120909,47.1522772 166.731699,47.0045182 L165.565416,46.9887288 Z M148.636325,138.911685 C152.042231,138.911685 154.598944,140.573548 156.872592,143.358539 C158.977357,146.261009 160.074152,149.772677 159.995434,153.357112 C159.995434,157.520902 158.57098,160.853759 156.306463,163.081752 C153.932373,165.142123 151.07014,166.486028 147.946403,166.667502 L147.221002,166.688543 L89.6036524,166.688543 L89.6036524,138.911685 L148.636325,138.911685 Z M143.815095,83.3488372 C146.524846,83.3748954 149.138137,84.3581139 151.193038,86.1246968 C153.183621,88.0696248 154.31588,91.128549 154.31588,95.2923384 C154.31588,99.75086 153.305933,103.223869 151.039888,104.995987 L150.626908,105.290912 C148.528156,106.833368 145.947022,108.134633 143.335963,108.325701 L142.682836,108.349836 L89.5945213,108.349836 L89.5945213,83.3488372 L143.815095,83.3488372 Z" fill="#0AB3AF"></path>
    </g>
</svg>

<svg preserveAspectRatio="xMidYMid" viewBox="0 0 256 302" xmlns="http://www.w3.org/2000/svg">
  <path fill="#0AB3AF" d="m244.495 0-.274.292c7.15 0 11.524 5.54 11.768 12.32l.011.6v230.552c0 7.12-4.156 11.473-10.852 11.73l-.635.013H89.558l-42.423 45.82v-46.112H12.966c-6.868 0-12.619-4.146-12.95-10.844L0 243.755V12.921C0 6.067 5.567.327 12.648.013l.61-.013h231.237Zm-78.93 46.989H47.135v164.47H151.43c7.954 0 15.615-1.47 22.682-3.233 6.605-1.364 12.43-4.278 17.729-7.519l1.127-.699a35.547 35.547 0 0 0 12.08-11.94l.585-.99h-.302c2.94-5.277 4.42-11.45 4.42-18.792 0-11.45-2.657-20.563-7.962-27.612-5.589-6.748-12.957-11.45-22.38-14.09a36.78 36.78 0 0 0 17.668-15.86c3.835-7.05 5.899-14.39 5.899-22.024a43.966 43.966 0 0 0-10.017-28.49c-3.242-3.825-7.369-7.049-11.78-9.404-4.405-2.463-9.058-3.654-14.447-3.801l-1.167-.016Zm-16.929 91.923c3.406 0 5.963 1.662 8.237 4.447a16.418 16.418 0 0 1 3.122 9.998c0 4.164-1.424 7.497-3.689 9.725-2.374 2.06-5.236 3.404-8.36 3.586l-.725.02H89.604v-27.776h59.032Zm-4.82-55.563a11.49 11.49 0 0 1 7.377 2.776c1.99 1.945 3.123 5.004 3.123 9.167 0 4.459-1.01 7.932-3.276 9.704l-.413.295c-2.099 1.542-4.68 2.844-7.291 3.035l-.653.024H89.595V83.349h54.22Z"/>
</svg>
